alpha-f-circle.svg

<svg fill="currentColor" viewBox="0 0 24 24"><path d="M12 2a10 10 0 0 1 10 10 10 10 0 0 1-10 10A10 10 0 0 1 2 12 10 10 0 0 1 12 2M9 7v10h2v-4h3v-2h-3V9h4V7z"/></svg>

<svg  viewBox="0 0 24 24" fill="currentColor"><path  d="M12,2A10,10 0 0,1 22,12A10,10 0 0,1 12,22A10,10 0 0,1 2,12A10,10 0 0,1 12,2M9,7V17H11V13H14V11H11V9H15V7H9Z"/></svg>
